X:4011
T:Devil among the Tailors, The
T:De'il amang the Tailors, The
R:Reel
C:Trad.
O:Scottish
M:4/4
L:1/8
Q:1/4=120
K:G
df|"G"g2df g2df|g2dg edcB|"C"ceAe ceAe|ceag fdef|
"G"g2df g2df|g2dg edcB|"C"cdec dBGE|"D7"DGFA "G"G2:|
|:dc|"G"BdGd BdGd|Bdgf edcB|"C"ceAe ceAe|ceag fedc|
"G"BdGd BdGd|Bdgf edcB|"C"cdec dBGE|"D7"DGFA "G"G2:|

